Marwaita X/general/checkbox-off.svg

<?xml version="1.0" encoding="UTF-8" standalone="no"?>
<svg
   width="16"
   height="16"
   viewBox="0 0 16 16"
   id="svg2"
   version="1.1"
   inkscape:version="1.2.2 (b0a8486541, 2022-12-01)"
   sodipodi:docname="checkbox-off.svg"
   xmlns:inkscape="http://www.inkscape.org/namespaces/inkscape"
   xmlns:sodipodi="http://sodipodi.sourceforge.net/DTD/sodipodi-0.dtd"
   xmlns="http://www.w3.org/2000/svg"
   xmlns:svg="http://www.w3.org/2000/svg"
   xmlns:rdf="http://www.w3.org/1999/02/22-rdf-syntax-ns#"
   xmlns:cc="http://creativecommons.org/ns#"
   xmlns:dc="http://purl.org/dc/elements/1.1/">
  <defs
     id="defs4" />
  <sodipodi:namedview
     id="base"
     pagecolor="#ffffff"
     bordercolor="#666666"
     borderopacity="1.0"
     inkscape:pageopacity="0.0"
     inkscape:pageshadow="2"
     inkscape:zoom="15.839192"
     inkscape:cx="6.0924825"
     inkscape:cy="10.417198"
     inkscape:document-units="px"
     inkscape:current-layer="layer1"
     showgrid="true"
     units="px"
     inkscape:snap-bbox="true"
     inkscape:bbox-paths="true"
     inkscape:bbox-nodes="true"
     inkscape:snap-global="false"
     inkscape:window-width="1920"
     inkscape:window-height="1006"
     inkscape:window-x="0"
     inkscape:window-y="32"
     inkscape:window-maximized="1"
     inkscape:document-rotation="0"
     inkscape:pagecheckerboard="0"
     inkscape:showpageshadow="0"
     inkscape:deskcolor="#d1d1d1">
    <inkscape:grid
       type="xygrid"
       id="grid3336" />
  </sodipodi:namedview>
  <metadata
     id="metadata7">
    <rdf:RDF>
      <cc:Work
         rdf:about="">
        <dc:format>image/svg+xml</dc:format>
        <dc:type
           rdf:resource="http://purl.org/dc/dcmitype/StillImage" />
      </cc:Work>
    </rdf:RDF>
  </metadata>
  <g
     inkscape:label="Layer 1"
     inkscape:groupmode="layer"
     id="layer1"
     transform="translate(0,-1036.3622)">
    <path
       id="path1127"
       style="fill:#ffffff;stroke:none;stroke-width:1.78935;fill-opacity:1"
       d="M 1.5625 1036.3622 C 0.69690109 1036.3622 0 1037.0591 0 1037.9247 L 0 1050.7997 C 0 1051.6653 0.69690109 1052.3622 1.5625 1052.3622 L 14.4375 1052.3622 C 15.303099 1052.3622 16 1051.6653 16 1050.7997 L 16 1037.9247 C 16 1037.0591 15.303099 1036.3622 14.4375 1036.3622 L 1.5625 1036.3622 z M 2.3671875 1037.3622 L 13.632812 1037.3622 C 13.68015 1037.3622 13.727366 1037.3654 13.773438 1037.37 C 13.819509 1037.3747 13.863624 1037.3805 13.908203 1037.3895 C 13.952782 1037.3986 13.998154 1037.4095 14.041016 1037.4227 C 14.083877 1037.436 14.125097 1037.4524 14.166016 1037.4696 C 14.206934 1037.4869 14.246407 1037.5053 14.285156 1037.5263 C 14.323906 1037.5473 14.362083 1037.5701 14.398438 1037.5946 C 14.434792 1037.6191 14.470172 1037.6449 14.503906 1037.6727 C 14.537641 1037.7006 14.56872 1037.7317 14.599609 1037.7626 C 14.630498 1037.7935 14.661636 1037.8246 14.689453 1037.8583 C 14.717271 1037.892 14.743058 1037.9274 14.767578 1037.9638 C 14.792099 1038.0001 14.81494 1038.0383 14.835938 1038.077 C 14.856935 1038.1158 14.875329 1038.1553 14.892578 1038.1962 C 14.909828 1038.2371 14.926178 1038.2783 14.939453 1038.3212 C 14.952729 1038.364 14.96358 1038.4094 14.972656 1038.454 C 14.981732 1038.4986 14.987537 1038.5427 14.992188 1038.5888 C 14.996838 1038.6348 15 1038.6821 15 1038.7294 L 15 1049.995 C 15 1050.0423 14.996838 1050.0896 14.992188 1050.1356 C 14.987537 1050.1817 14.981732 1050.2258 14.972656 1050.2704 C 14.96358 1050.315 14.952729 1050.3604 14.939453 1050.4032 C 14.926178 1050.4461 14.909828 1050.4873 14.892578 1050.5282 C 14.875329 1050.5691 14.856935 1050.6086 14.835938 1050.6474 C 14.81494 1050.6861 14.792099 1050.7243 14.767578 1050.7606 C 14.743058 1050.797 14.717271 1050.8324 14.689453 1050.8661 C 14.661636 1050.8998 14.630498 1050.9309 14.599609 1050.9618 C 14.56872 1050.9927 14.537641 1051.0238 14.503906 1051.0517 C 14.470172 1051.0795 14.434792 1051.1053 14.398438 1051.1298 C 14.362083 1051.1543 14.323906 1051.1771 14.285156 1051.1981 C 14.246407 1051.2191 14.206934 1051.2375 14.166016 1051.2548 C 14.125097 1051.272 14.083877 1051.2884 14.041016 1051.3017 C 13.998154 1051.3149 13.952782 1051.3258 13.908203 1051.3349 C 13.863624 1051.3439 13.819509 1051.3497 13.773438 1051.3544 C 13.727366 1051.359 13.68015 1051.3622 13.632812 1051.3622 L 2.3671875 1051.3622 C 2.3198501 1051.3622 2.2726336 1051.359 2.2265625 1051.3544 C 2.1804914 1051.3497 2.136376 1051.3439 2.0917969 1051.3349 C 2.0472178 1051.3258 2.0018459 1051.3149 1.9589844 1051.3017 C 1.9161229 1051.2884 1.8749026 1051.272 1.8339844 1051.2548 C 1.7930661 1051.2375 1.7535931 1051.2191 1.7148438 1051.1981 C 1.6760944 1051.1771 1.6379174 1051.1543 1.6015625 1051.1298 C 1.5652076 1051.1053 1.5298285 1051.0795 1.4960938 1051.0517 C 1.462359 1051.0238 1.4312796 1050.9927 1.4003906 1050.9618 C 1.3695017 1050.9309 1.3383644 1050.8998 1.3105469 1050.8661 C 1.2827293 1050.8324 1.2569424 1050.797 1.2324219 1050.7606 C 1.2079014 1050.7243 1.1850603 1050.6861 1.1640625 1050.6474 C 1.1430647 1050.6086 1.1246714 1050.5691 1.1074219 1050.5282 C 1.0901723 1050.4873 1.0738225 1050.4461 1.0605469 1050.4032 C 1.0472713 1050.3604 1.0364198 1050.315 1.0273438 1050.2704 C 1.0182677 1050.2258 1.0124633 1050.1817 1.0078125 1050.1356 C 1.0031617 1050.0896 1 1050.0423 1 1049.995 L 1 1038.7294 C 1 1038.6821 1.0031617 1038.6348 1.0078125 1038.5888 C 1.0124633 1038.5427 1.0182677 1038.4986 1.0273438 1038.454 C 1.0364198 1038.4094 1.0472713 1038.364 1.0605469 1038.3212 C 1.0738225 1038.2783 1.0901723 1038.2371 1.1074219 1038.1962 C 1.1246714 1038.1553 1.1430647 1038.1158 1.1640625 1038.077 C 1.1850603 1038.0383 1.2079014 1038.0001 1.2324219 1037.9638 C 1.2569424 1037.9274 1.2827293 1037.892 1.3105469 1037.8583 C 1.3383644 1037.8246 1.3695017 1037.7935 1.4003906 1037.7626 C 1.4312796 1037.7317 1.462359 1037.7006 1.4960938 1037.6727 C 1.5298285 1037.6449 1.5652076 1037.6191 1.6015625 1037.5946 C 1.6379174 1037.5701 1.6760944 1037.5473 1.7148438 1037.5263 C 1.7535931 1037.5053 1.7930661 1037.4869 1.8339844 1037.4696 C 1.8749026 1037.4524 1.9161229 1037.436 1.9589844 1037.4227 C 2.0018459 1037.4095 2.0472178 1037.3986 2.0917969 1037.3895 C 2.136376 1037.3805 2.1804914 1037.3747 2.2265625 1037.37 C 2.2726336 1037.3654 2.3198501 1037.3622 2.3671875 1037.3622 z " />
  </g>
</svg>

<?xml version="1.0" encoding="UTF-8" standalone="no"?>
<svg
   width="16"
   height="16"
   viewBox="0 0 16 16"
   id="svg2"
   version="1.1"
   inkscape:version="1.1.2 (0a00cf5339, 2022-02-04)"
   sodipodi:docname="checkbox-off.svg"
   xmlns:inkscape="http://www.inkscape.org/namespaces/inkscape"
   xmlns:sodipodi="http://sodipodi.sourceforge.net/DTD/sodipodi-0.dtd"
   xmlns="http://www.w3.org/2000/svg"
   xmlns:svg="http://www.w3.org/2000/svg"
   xmlns:rdf="http://www.w3.org/1999/02/22-rdf-syntax-ns#"
   xmlns:cc="http://creativecommons.org/ns#"
   xmlns:dc="http://purl.org/dc/elements/1.1/">
  <defs
     id="defs4" />
  <sodipodi:namedview
     id="base"
     pagecolor="#ffffff"
     bordercolor="#666666"
     borderopacity="1.0"
     inkscape:pageopacity="0.0"
     inkscape:pageshadow="2"
     inkscape:zoom="15.839192"
     inkscape:cx="6.1240498"
     inkscape:cy="10.385631"
     inkscape:document-units="px"
     inkscape:current-layer="layer1"
     showgrid="true"
     units="px"
     inkscape:snap-bbox="true"
     inkscape:bbox-paths="true"
     inkscape:bbox-nodes="true"
     inkscape:snap-global="false"
     inkscape:window-width="1920"
     inkscape:window-height="988"
     inkscape:window-x="0"
     inkscape:window-y="0"
     inkscape:window-maximized="1"
     inkscape:document-rotation="0"
     inkscape:pagecheckerboard="0"
     inkscape:showpageshadow="0"
     inkscape:deskcolor="#d1d1d1">
    <inkscape:grid
       type="xygrid"
       id="grid3336" />
  </sodipodi:namedview>
  <metadata
     id="metadata7">
    <rdf:RDF>
      <cc:Work
         rdf:about="">
        <dc:format>image/svg+xml</dc:format>
        <dc:type
           rdf:resource="http://purl.org/dc/dcmitype/StillImage" />
      </cc:Work>
    </rdf:RDF>
  </metadata>
  <g
     inkscape:label="Layer 1"
     inkscape:groupmode="layer"
     id="layer1"
     transform="translate(0,-1036.3622)">
    <path
       id="path1127"
       style="fill:#000000;fill-opacity:1;stroke:none;stroke-width:1.78935"
       d="m 1.5625,1036.3622 c -0.86559891,0 -1.5625,0.6969 -1.5625,1.5625 v 12.875 c 0,0.8656 0.69690109,1.5625 1.5625,1.5625 h 12.875 c 0.865599,0 1.5625,-0.6969 1.5625,-1.5625 v -12.875 c 0,-0.8656 -0.696901,-1.5625 -1.5625,-1.5625 z m 0.8046875,1 H 13.632812 c 0.04734,0 0.09455,0 0.140626,0.01 0.04607,0 0.09019,0.011 0.134765,0.02 0.04458,0.01 0.08995,0.02 0.132813,0.033 0.04286,0.013 0.08408,0.03 0.125,0.047 0.04092,0.017 0.08039,0.036 0.11914,0.057 0.03875,0.021 0.07693,0.044 0.113282,0.068 0.03635,0.024 0.07173,0.05 0.105468,0.078 0.03374,0.028 0.06481,0.059 0.0957,0.09 0.03089,0.031 0.06203,0.062 0.08984,0.096 0.02782,0.034 0.0536,0.069 0.07813,0.1055 0.02452,0.036 0.04736,0.074 0.06836,0.1132 0.021,0.039 0.03939,0.078 0.05664,0.1192 0.01725,0.041 0.0336,0.082 0.04687,0.125 0.01328,0.043 0.02413,0.088 0.0332,0.1328 0.0091,0.045 0.01488,0.089 0.01953,0.1348 0.0046,0.046 0.0078,0.093 0.0078,0.1406 v 11.2656 c 0,0.047 -0.0032,0.095 -0.0078,0.1406 -0.0047,0.046 -0.01046,0.09 -0.01953,0.1348 -0.0091,0.045 -0.01993,0.09 -0.0332,0.1328 -0.01328,0.043 -0.02963,0.084 -0.04687,0.125 -0.01725,0.041 -0.03564,0.08 -0.05664,0.1192 -0.021,0.039 -0.04384,0.077 -0.06836,0.1132 -0.02452,0.036 -0.05031,0.072 -0.07813,0.1055 -0.02782,0.034 -0.05896,0.065 -0.08984,0.096 -0.03089,0.031 -0.06197,0.062 -0.0957,0.09 -0.03373,0.028 -0.06911,0.054 -0.105468,0.078 -0.03636,0.024 -0.07453,0.047 -0.113282,0.068 -0.03875,0.021 -0.07822,0.039 -0.11914,0.057 -0.04092,0.017 -0.08214,0.034 -0.125,0.047 -0.04286,0.013 -0.08823,0.024 -0.132813,0.033 -0.04458,0.01 -0.08869,0.015 -0.134765,0.019 -0.04607,0 -0.09329,0.01 -0.140626,0.01 H 2.3671875 c -0.047337,0 -0.094554,-0 -0.140625,-0.01 -0.046071,-0 -0.090187,-0.01 -0.1347656,-0.019 -0.044579,-0.01 -0.089951,-0.02 -0.1328125,-0.033 -0.042862,-0.013 -0.084082,-0.03 -0.125,-0.047 -0.040918,-0.017 -0.080391,-0.036 -0.1191406,-0.057 -0.038749,-0.021 -0.076926,-0.044 -0.1132813,-0.068 -0.036355,-0.024 -0.071734,-0.05 -0.1054687,-0.078 -0.033735,-0.028 -0.064814,-0.059 -0.095703,-0.09 -0.030889,-0.031 -0.062026,-0.062 -0.089844,-0.096 -0.027818,-0.034 -0.053605,-0.069 -0.078125,-0.1055 -0.024521,-0.036 -0.047362,-0.075 -0.068359,-0.1132 -0.020998,-0.039 -0.039391,-0.078 -0.056641,-0.1192 -0.01725,-0.041 -0.033599,-0.082 -0.046875,-0.125 -0.013276,-0.043 -0.024127,-0.088 -0.033203,-0.1328 -0.00908,-0.045 -0.01488,-0.089 -0.019531,-0.1348 C 1.0031617,1050.0896 1,1050.0423 1,1049.995 v -11.2656 c 0,-0.047 0.00316,-0.095 0.00781,-0.1406 0.00465,-0.046 0.010455,-0.09 0.019531,-0.1348 0.00908,-0.045 0.019928,-0.09 0.033203,-0.1328 0.013276,-0.043 0.029625,-0.084 0.046875,-0.125 0.017249,-0.041 0.035643,-0.08 0.056641,-0.1192 0.020998,-0.039 0.043839,-0.077 0.068359,-0.1132 0.02452,-0.036 0.050307,-0.072 0.078125,-0.1055 0.027817,-0.034 0.058955,-0.065 0.089844,-0.096 0.030889,-0.031 0.061968,-0.062 0.095703,-0.09 0.033735,-0.028 0.069114,-0.054 0.1054687,-0.078 0.036355,-0.024 0.074532,-0.047 0.1132813,-0.068 0.038749,-0.021 0.078222,-0.039 0.1191406,-0.057 0.040918,-0.017 0.082138,-0.034 0.125,-0.047 0.042862,-0.013 0.088233,-0.024 0.1328125,-0.033 0.044579,-0.01 0.088695,-0.015 0.1347656,-0.02 0.046071,-0 0.093288,-0.01 0.140625,-0.01 z" />
  </g>
</svg>
